X:10
T:Mowbray
T:for three
C:Richard Schweitzer
P:AA BCDE
M:6/8
L:1/8
K:Gmaj
P:A
"^Drone: G/D"G3 F3 | G3 E3 | A2G FE2 | D6 :| \
P:B
G3 A3 | B2B B2G | \
G2E FG2 | A6 || \
P:C
G2F G2A | B2B B2G |]

